X:0746
T:Mrs. Menzies of Culdare's Strathspey.
M:C
L:1/8
Q:1/4=120
I: :: ||
Z:Jack Campin * www.campin.me.uk * 2009
K:D
f/e/ |dA B/A/G/F/ dAdf|dA/d/ B/A/G/F/ {F}E2 Eg/f/ |dA B/A/G/F/ A>Bdb     | afe>f (d2d):|
b/c'/|d'>ab>d'    afdf|edfd              B2 Bb/c'/|d'>ab>d'    a>fdf     |Te>def  d2d
b/c'/|d'>ab>d'    afdf|edfd             (B2 B>)d  |A>Bde       d>e dd'/b/| afef  (d2d)|]

